!!!OTL: Untreue
!!!ARE: Europa, Mitteleuropa, Deutschland
!!!SCT: A0215B
!!!YEM: Copyright 1995, estate of Helmut Schaffrath.
**kern
*ICvox
*Ivox
*M4/4
*k[f#]
*e:
{4a
=1
4a
4a
4ccn
4ccn
=2
2b
4a}
{4a
=3
4a
4e
4gn
4f#
=4
2e
4r}
{4a
=5
4a
4a
4ccn
4ccn
=6
2b
4a}
{4a
=7
4a
4e
4gn
4f#
=8
2e
4r}
{4ccn
=9
4ccn
4b
4ccn
4ddn
=10
2a
4gn}
{4ccn
=11
4b
4ccn
4ddn
4b
=12
2ccn
4r}
{4ccn
=13
4ddn
4ddn
4ee
4ddn
=14
4ccn
8b
8a
2b
=15
2a
4r}
{4b
=16
4ccn
4gn
4a
4f#
=17
2.e}
==
!!!AGN: Romanze, Ballade, Lied
!! Vereinfacht bei Werlin 1646 S. 242.
!!!ONB: ESAC (Essen Associative Code) Database: ALTDEU
!!!AMT: simple quadruple
!!!AIN: vox
!!!EED: Helmut Schaffrath
!!!EEV: 1.0
*-
